src/npmap-builder/sign-white-12.svg

<?xml version="1.0" encoding="utf-8"?>
<!-- Generator: Adobe Illustrator 21.1.0, SVG Export Plug-In . SVG Version: 6.00 Build 0)  -->
<svg version="1.1" id="Layer_1" xmlns:sketch="http://www.bohemiancoding.com/sketch/ns"
	 xmlns="http://www.w3.org/2000/svg" xmlns:xlink="http://www.w3.org/1999/xlink" x="0px" y="0px" width="12px" height="12px"
	 viewBox="0 0 12 12" enable-background="new 0 0 12 12" xml:space="preserve">
<path id="symbol" sketch:type="MSShapeGroup" fill="#FFFFFF" d="M7,5v4l0,0h1v1H5V9h1V5H3V2h3V1h1v1h3v3H7z"/>
</svg>

<?xml version="1.0" encoding="UTF-8" standalone="no"?>
<svg width="12px" height="12px" viewBox="0 0 12 12" version="1.1" xmlns="http://www.w3.org/2000/svg" xmlns:xlink="http://www.w3.org/1999/xlink" xmlns:sketch="http://www.bohemiancoding.com/sketch/ns">
    <!-- Generator: Sketch 3.3.3 (12072) - http://www.bohemiancoding.com/sketch -->
    <title>sign-white-12</title>
    <desc>Created with Sketch.</desc>
    <defs></defs>
    <g id="sign" stroke="none" stroke-width="1" fill="none" fill-rule="evenodd" sketch:type="MSPage">
        <g id="sign-white-12" sketch:type="MSArtboardGroup" fill="#FFFFFF">
            <path d="M7,5 L7,9 L7,9 L8,9 L8,10 L5,10 L5,9 L6,9 L6,5 L3,5 L3,2 L6,2 L6,1 L7,1 L7,2 L10,2 L10,5 L7,5 Z" id="symbol" sketch:type="MSShapeGroup"></path>
        </g>
    </g>
</svg>
